docs/img/advantages/04.svg

<svg width="36" height="40" viewBox="0 0 36 40" fill="none" xmlns="http://www.w3.org/2000/svg">
<path d="M34.4624 15.9752C34.1995 7.12165 26.9161 0 18 0C9.08381 0 1.80043 7.12165 1.53745 15.9752L0.352905 17.1598V25.1932L1.52938 26.3696V31.8431C1.52938 35.0435 4.13298 37.6471 7.3333 37.6471H8.79055C9.2762 39.0164 10.5839 40 12.1176 40H14.4706C16.0053 40 17.3137 39.015 17.7986 37.6442C17.8658 37.6454 17.9331 37.6471 18 37.6471C23.6814 37.6471 28.4351 33.5987 29.5281 28.2353H32.6049L35.647 25.1932V17.1598L34.4624 15.9752ZM18 2.35294C24.9828 2.35294 30.7969 7.44933 31.9204 14.1176H29.5281C28.4351 8.7542 23.6814 4.70588 18 4.70588C12.3186 4.70588 7.56483 8.7542 6.47181 14.1176H4.07949C5.20302 7.44933 11.0171 2.35294 18 2.35294ZM27.1139 14.1176C23.3109 14.1063 20.6246 14.3379 18.4098 11.1004L17.3344 9.52839L16.4102 11.1938C15.0635 13.6204 13.2499 14.1176 10.9411 14.1176H8.886C9.93346 10.0629 13.6225 7.05882 18 7.05882C22.3775 7.05882 26.0665 10.0629 27.1139 14.1176ZM6.23526 25.8824H4.36961L2.70585 24.2186V18.1344L4.36961 16.4706H6.23526V25.8824ZM3.88232 31.8431V28.2353H6.46953C6.91244 30.4294 7.97212 32.4435 9.542 34.0611C9.21291 34.4127 8.95479 34.8311 8.79055 35.2941H7.3333C5.4304 35.2941 3.88232 33.746 3.88232 31.8431ZM14.4706 37.6471H12.1176C11.4688 37.6471 10.9411 37.1194 10.9411 36.4706C10.9411 35.8219 11.4688 35.2941 12.1176 35.2941H14.4706C15.1193 35.2941 15.647 35.8219 15.647 36.4706C15.647 37.1194 15.1193 37.6471 14.4706 37.6471ZM27.4117 25.8824C27.4117 31.072 23.1896 35.2941 18 35.2941C17.9325 35.2941 17.8645 35.2928 17.7966 35.2912C17.3102 33.9234 16.0032 32.9412 14.4706 32.9412C12.0549 32.9465 12.0934 32.9291 11.7923 32.9568C9.74977 31.1665 8.5882 28.6166 8.5882 25.8824V16.4706H10.9411C13.0233 16.4706 15.5589 16.1273 17.5218 13.7384C20.1116 16.4524 23.2764 16.4706 26.1175 16.4706H27.4117V25.8824ZM33.2941 24.2186L31.6303 25.8824H29.7647V16.4706H31.6303L33.2941 18.1344V24.2186Z" fill="#3A3A3A"/>
</svg>

<svg width="36" height="40" fill="none" xmlns="http://www.w3.org/2000/svg"><path d="M34.462 15.975C34.2 7.122 26.916 0 18 0S1.8 7.122 1.537 15.975L.353 17.16v8.033l1.176 1.177v5.473a5.81 5.81 0 005.804 5.804h1.458A3.535 3.535 0 0012.118 40h2.353a3.535 3.535 0 003.328-2.356l.201.003c5.681 0 10.435-4.048 11.528-9.412h3.077l3.042-3.042V17.16l-1.185-1.185zM18 2.353c6.983 0 12.797 5.096 13.92 11.765h-2.392C28.435 8.754 23.681 4.706 18 4.706S7.565 8.754 6.472 14.118H4.079C5.203 7.449 11.017 2.353 18 2.353zm9.114 11.765c-3.803-.012-6.49.22-8.704-3.018l-1.076-1.572-.924 1.666c-1.347 2.426-3.16 2.924-5.469 2.924H8.886c1.047-4.055 4.737-7.06 9.114-7.06 4.378 0 8.067 3.005 9.114 7.06zM6.235 25.882H4.37L2.706 24.22v-6.085l1.664-1.663h1.865v9.411zm-2.353 5.961v-3.608H6.47a11.661 11.661 0 003.072 5.826 3.52 3.52 0 00-.751 1.233H7.333a3.455 3.455 0 01-3.45-3.45zm10.589 5.804h-2.353a1.178 1.178 0 010-2.353h2.353a1.178 1.178 0 010 2.353zm12.94-11.765c0 5.19-4.221 9.412-9.411 9.412a6.87 6.87 0 01-.203-.003 3.535 3.535 0 00-3.326-2.35c-2.416.005-2.378-.012-2.679.016a9.357 9.357 0 01-3.204-7.075v-9.411h2.353c2.082 0 4.618-.344 6.58-2.733 2.59 2.714 5.755 2.733 8.596 2.733h1.295v9.411zm5.883-1.663l-1.664 1.663h-1.865v-9.411h1.865l1.664 1.663v6.085z" fill="#3A3A3A"/></svg>
